!! 00000] TT[WS
!!!OTL: Shengchan jieyue
!!!ARE: Asia, China, Shanxi Zuoquan
!! Ethnic Group: Han
!! WII, 250 (1)
!!!SCT: J0775
!!!YEM: Copyright 1995, estate of Helmut Schaffrath.
**kern
*ICvox
*Ivox
*M2/4
*k[b-]
*F:
{8dd
8ff
8dd
8cc
=1
4b-
4a
=2
8g
8a
8cc
8g
=3
4.g
8cc
=4
8a
8g
8d
8f
=5
4g
4r}
=6
{8ff
4ff
8dd
=7
8cc
8dd
8cc
8a
=8
8cc
8a
8g
8f
=9
4c
4r}
==
!!!AGN: Xiaodiao. Laodong, Xinminge
!!!ONB: ESAC (Essen Associative Code) Database: CHINA
!!!AMT: simple duple
!!!AIN: vox
!!!EED: Helmut Schaffrath
!!!EEV: 1.0
*-
